img/btn-play-image.svg

<svg width="117" height="29" viewBox="0 0 117 29" fill="none" xmlns="http://www.w3.org/2000/svg">
<mask id="mask0_1334:23563" style="mask-type:alpha" maskUnits="userSpaceOnUse" x="0" y="0" width="117" height="29">
<rect width="117" height="29" fill="#C4C4C4"/>
</mask>
<g mask="url(#mask0_1334:23563)">
<path d="M38.0493 4.9448C38.0493 5.72479 37.8508 6.40729 37.3545 6.89479C36.7589 7.47979 36.0641 7.77229 35.1708 7.77229C34.2775 7.77229 33.5826 7.47979 32.9871 6.89479C32.3915 6.30979 32.0938 5.62729 32.0938 4.74979C32.0938 3.87229 32.3915 3.18979 32.9871 2.60479C33.5826 2.01979 34.2775 1.72729 35.1708 1.72729C35.5678 1.72729 35.9649 1.8248 36.3619 2.0198C36.7589 2.2148 37.0567 2.40979 37.2552 2.70229L36.7589 3.18979C36.3619 2.70229 35.8656 2.5073 35.1708 2.5073C34.5752 2.5073 33.9797 2.70229 33.5826 3.18979C33.0863 3.57979 32.8878 4.16479 32.8878 4.84729C32.8878 5.52979 33.0863 6.11479 33.5826 6.50479C34.0789 6.89479 34.5752 7.18729 35.1708 7.18729C35.8656 7.18729 36.3619 6.99229 36.8582 6.50479C37.156 6.21229 37.3545 5.82229 37.3545 5.33479H35.1708V4.65229H38.0493C38.0493 4.65229 38.0493 4.8473 38.0493 4.9448Z" fill="white" stroke="white" stroke-width="0.0593535" stroke-miterlimit="10"/>
<path d="M42.6147 2.5077H39.9347V4.36019H42.4162V5.04269H39.9347V6.89519H42.6147V7.67519H39.1406V1.8252H42.6147V2.5077Z" fill="white" stroke="white" stroke-width="0.0593535" stroke-miterlimit="10"/>
<path d="M45.8897 7.67519H45.0956V2.5077H43.4082V1.8252H47.5771V2.5077H45.8897V7.67519Z" fill="white" stroke="white" stroke-width="0.0593535" stroke-miterlimit="10"/>
<path d="M50.459 7.67519V1.8252H51.253V7.67519H50.459Z" fill="white" stroke="white" stroke-width="0.0593535" stroke-miterlimit="10"/>
<path d="M54.626 7.67519H53.8319V2.5077H52.1445V1.8252H56.2142V2.5077H54.5268V7.67519H54.626Z" fill="white" stroke="white" stroke-width="0.0593535" stroke-miterlimit="10"/>
<path d="M64.0557 6.89479C63.4601 7.47979 62.7653 7.77229 61.872 7.77229C60.9786 7.77229 60.2838 7.47979 59.6883 6.89479C59.0927 6.30979 58.7949 5.62729 58.7949 4.74979C58.7949 3.87229 59.0927 3.18979 59.6883 2.60479C60.2838 2.01979 60.9786 1.72729 61.872 1.72729C62.7653 1.72729 63.4601 2.01979 64.0557 2.60479C64.6512 3.18979 64.949 3.87229 64.949 4.74979C64.949 5.62729 64.6512 6.30979 64.0557 6.89479ZM60.2838 6.40729C60.6809 6.79729 61.2764 7.08979 61.872 7.08979C62.4675 7.08979 63.0631 6.89479 63.4601 6.40729C63.8572 6.01729 64.1549 5.43229 64.1549 4.74979C64.1549 4.06729 63.9564 3.48229 63.4601 3.09229C63.0631 2.70229 62.4675 2.4098 61.872 2.4098C61.2764 2.4098 60.6809 2.60479 60.2838 3.09229C59.8868 3.48229 59.589 4.06729 59.589 4.74979C59.589 5.43229 59.7875 6.01729 60.2838 6.40729Z" fill="white" stroke="white" stroke-width="0.0593535" stroke-miterlimit="10"/>
<path d="M66.0391 7.67519V1.8252H66.9324L69.8109 6.40769V5.23769V1.8252H70.605V7.67519H69.8109L66.7339 2.8977V4.06769V7.67519H66.0391Z" fill="white" stroke="white" stroke-width="0.0593535" stroke-miterlimit="10"/>
<path d="M58.595 16.2551C56.2127 16.2551 54.3268 18.0101 54.3268 20.4476C54.3268 22.7876 56.2127 24.6401 58.595 24.6401C60.9772 24.6401 62.8631 22.8851 62.8631 20.4476C62.8631 17.9126 60.9772 16.2551 58.595 16.2551ZM58.595 22.8851C57.3046 22.8851 56.2127 21.8126 56.2127 20.3501C56.2127 18.8876 57.3046 17.8151 58.595 17.8151C59.8853 17.8151 60.9772 18.7901 60.9772 20.3501C60.9772 21.8126 59.8853 22.8851 58.595 22.8851ZM49.3638 16.2551C46.9816 16.2551 45.0957 18.0101 45.0957 20.4476C45.0957 22.7876 46.9816 24.6401 49.3638 24.6401C51.7461 24.6401 53.632 22.8851 53.632 20.4476C53.632 17.9126 51.7461 16.2551 49.3638 16.2551ZM49.3638 22.8851C48.0735 22.8851 46.9816 21.8126 46.9816 20.3501C46.9816 18.8876 48.0735 17.8151 49.3638 17.8151C50.6542 17.8151 51.7461 18.7901 51.7461 20.3501C51.7461 21.8126 50.6542 22.8851 49.3638 22.8851ZM38.346 17.5226V19.2776H42.6142C42.5149 20.2526 42.1179 21.0326 41.6216 21.5201C41.026 22.1051 40.0335 22.7876 38.346 22.7876C35.666 22.7876 33.6809 20.7401 33.6809 18.1076C33.6809 15.4751 35.7653 13.4276 38.346 13.4276C39.7357 13.4276 40.8275 14.0126 41.6216 14.6951L42.912 13.4276C41.8201 12.4526 40.4305 11.6726 38.4453 11.6726C34.872 11.6726 31.7949 14.5976 31.7949 18.1076C31.7949 21.6176 34.872 24.5426 38.4453 24.5426C40.4305 24.5426 41.8201 23.9576 43.0112 22.6901C44.2023 21.5201 44.5994 19.8626 44.5994 18.5951C44.5994 18.2051 44.5994 17.8151 44.5001 17.5226H38.346V17.5226ZM83.4098 18.8876C83.0128 17.9126 82.0202 16.2551 79.8365 16.2551C77.6528 16.2551 75.8661 17.9126 75.8661 20.4476C75.8661 22.7876 77.6528 24.6401 80.035 24.6401C81.9209 24.6401 83.112 23.4701 83.5091 22.7876L82.1194 21.8126C81.6231 22.4951 81.0276 22.9826 80.035 22.9826C79.0424 22.9826 78.4468 22.5926 77.9505 21.7151L83.6083 19.3751L83.4098 18.8876ZM77.6528 20.2526C77.6528 18.6926 78.9431 17.8151 79.8365 17.8151C80.5313 17.8151 81.2261 18.2051 81.4246 18.6926L77.6528 20.2526ZM72.9876 24.2501H74.8735V12.0626H72.9876V24.2501ZM70.0098 17.1326C69.5135 16.6451 68.7194 16.1576 67.7268 16.1576C65.6424 16.1576 63.6572 18.0101 63.6572 20.3501C63.6572 22.6901 65.5431 24.4451 67.7268 24.4451C68.7194 24.4451 69.5135 23.9576 69.9105 23.4701H70.0098V24.0551C70.0098 25.6151 69.1165 26.4926 67.7268 26.4926C66.635 26.4926 65.8409 25.7126 65.6424 25.0301L64.0542 25.7126C64.5505 26.7851 65.7416 28.1501 67.8261 28.1501C70.0098 28.1501 71.7965 26.8826 71.7965 23.8601V16.4501H70.0098V17.1326V17.1326ZM67.8261 22.8851C66.5357 22.8851 65.4439 21.8126 65.4439 20.3501C65.4439 18.8876 66.5357 17.8151 67.8261 17.8151C69.1165 17.8151 70.109 18.8876 70.109 20.3501C70.109 21.8126 69.1165 22.8851 67.8261 22.8851ZM92.0454 12.0626H87.5787V24.2501H89.4646V19.6676H92.0454C94.1298 19.6676 96.115 18.2051 96.115 15.8651C96.115 13.5251 94.1298 12.0626 92.0454 12.0626ZM92.1446 17.9126H89.4646V13.7201H92.1446C93.5343 13.7201 94.3283 14.8901 94.3283 15.7676C94.2291 16.8401 93.435 17.9126 92.1446 17.9126ZM103.559 16.1576C102.17 16.1576 100.78 16.7426 100.284 18.0101L101.971 18.6926C102.368 18.0101 102.964 17.8151 103.659 17.8151C104.651 17.8151 105.545 18.4001 105.644 19.3751V19.4726C105.346 19.2776 104.552 18.9851 103.758 18.9851C101.971 18.9851 100.185 19.9601 100.185 21.7151C100.185 23.3726 101.674 24.4451 103.262 24.4451C104.552 24.4451 105.148 23.8601 105.644 23.2751H105.743V24.2501H107.53V19.5701C107.331 17.4251 105.644 16.1576 103.559 16.1576ZM103.361 22.8851C102.765 22.8851 101.872 22.5926 101.872 21.8126C101.872 20.8376 102.964 20.5451 103.857 20.5451C104.651 20.5451 105.048 20.7401 105.545 20.9351C105.346 22.1051 104.354 22.8851 103.361 22.8851ZM113.783 16.4501L111.699 21.7151H111.599L109.416 16.4501H107.431L110.706 23.8601L108.82 27.9551H110.706L115.768 16.4501H113.783ZM97.1076 24.2501H98.9935V12.0626H97.1076V24.2501Z" fill="white"/>
<path d="M1.32247 2.31177C1.02469 2.60427 0.826172 3.09177 0.826172 3.67677V25.2243C0.826172 25.8093 1.02469 26.2968 1.32247 26.5893L1.42173 26.6868L13.7299 14.5968V14.4993V14.4018L1.32247 2.31177Z" fill="url(#paint0_linear_1334:23563)"/>
<path d="M17.7962 18.6918L13.7266 14.6943V14.4993V14.4018L17.7962 10.4043L17.8955 10.5018L22.7592 13.2318C24.1488 14.0118 24.1488 15.2793 22.7592 16.0593L17.7962 18.6918Z" fill="url(#paint1_linear_1334:23563)"/>
<path d="M17.8986 18.5943L13.7297 14.4993L1.32227 26.6868C1.81856 27.1743 2.51338 27.1743 3.40671 26.7843L17.8986 18.5943Z" fill="url(#paint2_linear_1334:23563)"/>
<path d="M17.8986 10.4045L3.40671 2.31196C2.51338 1.82446 1.81856 1.92196 1.32227 2.40946L13.7297 14.4995L17.8986 10.4045Z" fill="url(#paint3_linear_1334:23563)"/>
<path opacity="0.2" d="M17.8013 18.4971L3.40867 26.4921C2.61459 26.9796 1.91978 26.8821 1.42348 26.4921L1.32422 26.5896L1.42348 26.6871C1.91978 27.0771 2.61459 27.1746 3.40867 26.6871L17.8013 18.4971Z" fill="black"/>
<path opacity="0.12" d="M1.32282 26.4919C1.02504 26.1994 0.925781 25.712 0.925781 25.127V25.2245C0.925781 25.8094 1.1243 26.2969 1.42208 26.5894V26.4919H1.32282Z" fill="black"/>
<path opacity="0.12" d="M22.7638 15.7668L17.8008 18.4968L17.9 18.5943L22.7638 15.8643C23.4586 15.4743 23.7563 14.9868 23.7563 14.4993C23.7563 14.9868 23.3593 15.3768 22.7638 15.7668Z" fill="black"/>
<path opacity="0.25" d="M3.40727 2.40938L22.7629 13.2319C23.3584 13.6219 23.7554 14.0119 23.7554 14.4994C23.7554 14.0119 23.4577 13.5244 22.7629 13.1344L3.40727 2.31188C2.01763 1.53188 0.925781 2.21438 0.925781 3.77438V3.87188C0.925781 2.31188 2.01763 1.62938 3.40727 2.40938Z" fill="white"/>
</g>
<defs>
<linearGradient id="paint0_linear_1334:23563" x1="12.6377" y1="3.49122" x2="-3.72247" y2="20.1467" gradientUnits="userSpaceOnUse">
<stop stop-color="#00A0FF"/>
<stop offset="0.00657445" stop-color="#00A1FF"/>
<stop offset="0.2601" stop-color="#00BEFF"/>
<stop offset="0.5122" stop-color="#00D2FF"/>
<stop offset="0.7604" stop-color="#00DFFF"/>
<stop offset="1" stop-color="#00E3FF"/>
</linearGradient>
<linearGradient id="paint1_linear_1334:23563" x1="24.58" y1="14.5008" x2="0.562282" y2="14.5008" gradientUnits="userSpaceOnUse">
<stop stop-color="#FFE000"/>
<stop offset="0.4087" stop-color="#FFBD00"/>
<stop offset="0.7754" stop-color="#FFA500"/>
<stop offset="1" stop-color="#FF9C00"/>
</linearGradient>
<linearGradient id="paint2_linear_1334:23563" x1="15.6424" y1="16.738" x2="-6.54337" y2="39.3241" gradientUnits="userSpaceOnUse">
<stop stop-color="#FF3A44"/>
<stop offset="1" stop-color="#C31162"/>
</linearGradient>
<linearGradient id="paint3_linear_1334:23563" x1="-1.75745" y1="-4.82874" x2="8.14949" y2="5.25688" gradientUnits="userSpaceOnUse">
<stop stop-color="#32A071"/>
<stop offset="0.0685" stop-color="#2DA771"/>
<stop offset="0.4762" stop-color="#15CF74"/>
<stop offset="0.8009" stop-color="#06E775"/>
<stop offset="1" stop-color="#00F076"/>
</linearGradient>
</defs>
</svg>

<svg width="117" height="29" fill="none" xmlns="http://www.w3.org/2000/svg"><mask id="a" style="mask-type:alpha" maskUnits="userSpaceOnUse" x="0" y="0" width="117" height="29"><path fill="#C4C4C4" d="M0 0h117v29H0z"/></mask><g mask="url(#a)"><path d="M38.05 4.945c0 .78-.2 1.462-.695 1.95-.596.585-1.29.877-2.184.877-.893 0-1.588-.292-2.184-.877-.596-.585-.893-1.268-.893-2.145 0-.878.297-1.56.893-2.145.596-.585 1.29-.878 2.184-.878.397 0 .794.098 1.19.293.398.195.696.39.894.682l-.496.488c-.397-.488-.893-.683-1.588-.683-.596 0-1.191.195-1.588.683-.497.39-.695.975-.695 1.657 0 .683.198 1.268.695 1.658.496.39.992.682 1.588.682.695 0 1.19-.195 1.687-.682a1.6 1.6 0 00.497-1.17H35.17v-.683h2.878v.293zm4.565-2.437h-2.68V4.36h2.481v.683h-2.481v1.852h2.68v.78H39.14v-5.85h3.474v.683zm3.275 5.167h-.794V2.508h-1.688v-.683h4.17v.683H45.89v5.167zm4.569 0v-5.85h.794v5.85h-.794zm4.167 0h-.794V2.508h-1.688v-.683h4.07v.683h-1.687v5.167h.099zm9.43-.78c-.596.585-1.29.877-2.184.877-.893 0-1.588-.292-2.184-.877-.595-.585-.893-1.268-.893-2.145 0-.878.298-1.56.893-2.145.596-.585 1.29-.878 2.184-.878.893 0 1.588.293 2.184.878.595.585.893 1.267.893 2.145 0 .877-.298 1.56-.893 2.145zm-3.772-.488c.397.39.992.683 1.588.683.596 0 1.191-.195 1.588-.683.397-.39.695-.975.695-1.657 0-.683-.199-1.268-.695-1.658-.397-.39-.992-.682-1.588-.682-.596 0-1.191.195-1.588.682-.397.39-.695.975-.695 1.658 0 .682.199 1.267.695 1.657zm5.756 1.268v-5.85h.892l2.879 4.583V1.825h.794v5.85h-.794l-3.077-4.777v4.777h-.695z" fill="#fff" stroke="#fff" stroke-width=".059" stroke-miterlimit="10"/><path d="M58.595 16.255c-2.382 0-4.268 1.755-4.268 4.193 0 2.34 1.886 4.192 4.268 4.192 2.382 0 4.268-1.755 4.268-4.192 0-2.535-1.886-4.193-4.268-4.193zm0 6.63c-1.29 0-2.382-1.072-2.382-2.535 0-1.462 1.092-2.535 2.382-2.535s2.382.975 2.382 2.535c0 1.463-1.092 2.535-2.382 2.535zm-9.231-6.63c-2.382 0-4.268 1.755-4.268 4.193 0 2.34 1.886 4.192 4.268 4.192 2.382 0 4.268-1.755 4.268-4.192 0-2.535-1.886-4.193-4.268-4.193zm0 6.63c-1.29 0-2.382-1.072-2.382-2.535 0-1.462 1.092-2.535 2.382-2.535s2.382.975 2.382 2.535c0 1.463-1.092 2.535-2.382 2.535zm-11.018-5.362v1.755h4.268c-.1.975-.496 1.755-.992 2.242-.596.585-1.589 1.268-3.276 1.268-2.68 0-4.665-2.048-4.665-4.68a4.64 4.64 0 014.665-4.68c1.39 0 2.482.585 3.276 1.267l1.29-1.267c-1.092-.975-2.481-1.755-4.467-1.755-3.573 0-6.65 2.925-6.65 6.435s3.077 6.435 6.65 6.435c1.986 0 3.375-.585 4.566-1.853 1.191-1.17 1.588-2.827 1.588-4.095 0-.39 0-.78-.099-1.072h-6.154zm45.064 1.365c-.397-.975-1.39-2.633-3.573-2.633-2.184 0-3.97 1.658-3.97 4.193 0 2.34 1.786 4.192 4.168 4.192 1.886 0 3.077-1.17 3.474-1.852l-1.39-.975c-.496.682-1.091 1.17-2.084 1.17-.993 0-1.588-.39-2.084-1.268l5.657-2.34-.198-.487zm-5.757 1.365c0-1.56 1.29-2.438 2.183-2.438.695 0 1.39.39 1.589.878l-3.772 1.56zm-4.665 3.997h1.886V12.063h-1.886V24.25zm-2.978-7.117c-.497-.488-1.29-.975-2.283-.975-2.085 0-4.07 1.852-4.07 4.192a4.073 4.073 0 004.07 4.095c.992 0 1.786-.487 2.183-.975h.1v.585c0 1.56-.894 2.438-2.283 2.438-1.092 0-1.886-.78-2.085-1.463l-1.588.683c.496 1.072 1.688 2.437 3.772 2.437 2.184 0 3.97-1.267 3.97-4.29v-7.41H70.01v.683zm-2.184 5.752c-1.29 0-2.382-1.072-2.382-2.535 0-1.462 1.092-2.535 2.382-2.535s2.283 1.073 2.283 2.535c0 1.463-.992 2.535-2.283 2.535zm24.22-10.822h-4.467V24.25h1.886v-4.582h2.58c2.085 0 4.07-1.463 4.07-3.803s-1.985-3.802-4.07-3.802zm.099 5.85h-2.68V13.72h2.68c1.39 0 2.183 1.17 2.183 2.048-.099 1.072-.893 2.145-2.183 2.145zm11.414-1.755c-1.389 0-2.779.585-3.275 1.852l1.687.683c.397-.683.993-.878 1.688-.878.992 0 1.886.585 1.985 1.56v.098c-.298-.195-1.092-.488-1.886-.488-1.787 0-3.573.975-3.573 2.73 0 1.658 1.489 2.73 3.077 2.73 1.29 0 1.886-.585 2.382-1.17h.099v.975h1.787v-4.68c-.199-2.145-1.886-3.412-3.971-3.412zm-.198 6.727c-.596 0-1.489-.292-1.489-1.072 0-.975 1.092-1.268 1.985-1.268.794 0 1.191.195 1.688.39-.199 1.17-1.191 1.95-2.184 1.95zm10.422-6.435l-2.084 5.265h-.1l-2.183-5.265h-1.985l3.275 7.41-1.886 4.095h1.886l5.062-11.505h-1.985zm-16.675 7.8h1.885V12.063h-1.885V24.25z" fill="#fff"/><path d="M1.322 2.312c-.297.292-.496.78-.496 1.365v21.547c0 .585.199 1.073.496 1.365l.1.098 12.308-12.09v-.195L1.322 2.312z" fill="url(#paint0_linear_1334:23563)"/><path d="M17.796 18.692l-4.07-3.998v-.292l4.07-3.998.1.098 4.863 2.73c1.39.78 1.39 2.047 0 2.827l-4.963 2.633z" fill="url(#paint1_linear_1334:23563)"/><path d="M17.899 18.594l-4.17-4.095L1.323 26.687c.497.487 1.191.487 2.085.097l14.492-8.19z" fill="url(#paint2_linear_1334:23563)"/><path d="M17.899 10.405L3.407 2.312c-.894-.488-1.588-.39-2.085.097L13.73 14.5l4.169-4.095z" fill="url(#paint3_linear_1334:23563)"/><path opacity=".2" d="M17.801 18.497L3.41 26.492c-.794.488-1.49.39-1.986 0l-.099.098.1.097c.496.39 1.19.488 1.985 0l14.392-8.19z" fill="#000"/><path opacity=".12" d="M1.323 26.492c-.298-.293-.397-.78-.397-1.365v.098c0 .584.198 1.072.496 1.364v-.097h-.1zm21.441-10.725l-4.963 2.73.099.097 4.864-2.73c.695-.39.992-.877.992-1.365 0 .488-.397.878-.992 1.268z" fill="#000"/><path opacity=".25" d="M3.407 2.41l19.356 10.822c.595.39.992.78.992 1.267 0-.487-.297-.975-.992-1.365L3.407 2.312C2.017 1.532.926 2.214.926 3.774v.098c0-1.56 1.092-2.243 2.481-1.463z" fill="#fff"/></g><defs><linearGradient id="paint0_linear_1334:23563" x1="12.638" y1="3.491" x2="-3.722" y2="20.147" gradientUnits="userSpaceOnUse"><stop stop-color="#00A0FF"/><stop offset=".007" stop-color="#00A1FF"/><stop offset=".26" stop-color="#00BEFF"/><stop offset=".512" stop-color="#00D2FF"/><stop offset=".76" stop-color="#00DFFF"/><stop offset="1" stop-color="#00E3FF"/></linearGradient><linearGradient id="paint1_linear_1334:23563" x1="24.58" y1="14.501" x2=".562" y2="14.501" gradientUnits="userSpaceOnUse"><stop stop-color="#FFE000"/><stop offset=".409" stop-color="#FFBD00"/><stop offset=".775" stop-color="orange"/><stop offset="1" stop-color="#FF9C00"/></linearGradient><linearGradient id="paint2_linear_1334:23563" x1="15.642" y1="16.738" x2="-6.543" y2="39.324" gradientUnits="userSpaceOnUse"><stop stop-color="#FF3A44"/><stop offset="1" stop-color="#C31162"/></linearGradient><linearGradient id="paint3_linear_1334:23563" x1="-1.757" y1="-4.829" x2="8.149" y2="5.257" gradientUnits="userSpaceOnUse"><stop stop-color="#32A071"/><stop offset=".069" stop-color="#2DA771"/><stop offset=".476" stop-color="#15CF74"/><stop offset=".801" stop-color="#06E775"/><stop offset="1" stop-color="#00F076"/></linearGradient></defs></svg>
